dist/svg/connect-noip.svg

<!-- Generated by Trend Micro Style Portal -->
<svg version="1.1" xmlns="http://www.w3.org/2000/svg" width="16" height="16" viewBox="0 0 16 16">
  <title>connect-noip</title>
  <path fill="rgb(34,34,34)" d="M6.3 7.3c-0.8 1-1.3 2.2-1.3 3.6-1 0.2-2 0.1-2 0.1l-2 2-1-1 2-2c0 0-0.2-2.8 1-4l1-1 2.3 2.3zM10.9 5c0.2-1 0.1-2 0.1-2l2-2-1-1-2 2c0 0-2.8-0.2-4 1l-1 1 2.3 2.3c1-0.8 2.2-1.3 3.6-1.3zM16 11c0 2.8-2.2 5-5 5s-5-2.2-5-5 2.2-5 5-5 5 2.2 5 5zM14.5 11c0-1.9-1.6-3.5-3.5-3.5s-3.5 1.6-3.5 3.5 1.6 3.5 3.5 3.5 3.5-1.6 3.5-3.5z"></path>
</svg>

<svg width="16" height="16" viewBox="0 0 16 16" fill="rgb(34, 34, 34)" xmlns="http://www.w3.org/2000/svg"><title>connect-NoIP</title><path d="M6.3 7.3C5.5 8.3 5 9.5 5 10.9C4 11.1 3 11 3 11L1 13L0 12L2 10C2 10 1.8 7.2 3 6L4 5L6.3 7.3ZM10.9 5C11.1 4 11 3 11 3L13 1L12 0L10 2C10 2 7.2 1.8 6 3L5 4L7.3 6.3C8.3 5.5 9.5 5 10.9 5ZM16 11C16 13.8 13.8 16 11 16C8.2 16 6 13.8 6 11C6 8.2 8.2 6 11 6C13.8 6 16 8.2 16 11ZM14.5 11C14.5 9.1 12.9 7.5 11 7.5C9.1 7.5 7.5 9.1 7.5 11C7.5 12.9 9.1 14.5 11 14.5C12.9 14.5 14.5 12.9 14.5 11Z" fill="rgb(34, 34, 34)" fill-opacity="1.00"/></svg>
